X:1
T: Alec Heard
C:
R:Strathspey
Q:128
K:A
M:4/4
L:1/16
|:E2|A3B c3d e2c2 A4|FB3 B3A G2B2 e4|A3B c3d e3c A3c|dcBA GB3 A4 A2E2|
A3B c3d e2c2 A4|FB3 B3A G2B2 e4|A3B c3d e3c A3c|dcBA GB3 A4 A2e2|
a3e ce3 A3e c3e|a3e c3e d3B B3e|a2e2 c3e A3e c3e|dcBA G2B2 A4 A2e2|
a3e ce3 A3e c3e|a3e c3e d3B B3c|AE3 c3A e3c A3c|dcBA GB3 A4 A2:|
